X:1
T:Title
%%score 1 2 3 4
L:1/8
Q:1/4=120
M:4/4
K:Bb
V:1 treble nm="Trumpet, Staff"
V:2 treble nm="French Horn, Staff-1"
V:3 treble nm="Trombone, Staff-2"
V:4 bass nm="Tuba, Staff-3"
V:1
 d2 d2 c2 B2 | A2 B4 G2 | d2 d2 c2 B2 | A2 B2 GG A2 | B2 c4 c2 | c2 c2 c2 G2 | A2 B4 z2 | %7
w: By~Italian~Traditional * * *|||||||
 de f2 ed c2- | cc B4 z2 | de f2 ed c2- | cc B4 z2 | _A2 A2 G2 ^F2- | F2 G4 z2 | A2 B2 c2 A2- | %14
w: |||||||
 A2 G6- | G2 z2 z4 |] %16
w: ||
V:2
 D2 G2- G/ z/ ^F G2 | ^F2 G4 D2 | G2 A2 ^F2 G2- | G^F G2 DD =F2 | F2 G4 G2 | E2 F2 C2 ED | %6
 C2 D4 z2 | BB B2 AB B2 | A2 B4 z2 | BB B2 AB B2 | A2 B4 z2 | E2 E2 E2 D2 | C2 B,4 z2 | %13
 D2 D2 E2 D2- | DC B,6- | B,2 z2 z4 |] %16
V:3
 B,2 B,2 C2 D2 | D2 D4 B,2 | D2 A,2 C2 D2 | D2 D2 B,B, C2 | D2 E4 E2 | G,2 A,2 A,2 B,2 | %6
 F,2 F,4 z2 | FE D2 EF F2- | FF D4 z2 | FE D2 EF F2- | FF D4 z2 | C2 C2- C/ z/ B, A,2- | %12
 A,2 G,4 z2 | ^F,2 G,2 G,4 | ^F,2 G,6- | G,2 z2 z4 |] %16
V:4
 G,2 A,2 G,2 F,2 | D,2 G,4 G,2 | B,2 ^F,2 A,2 G,2 | D,2 G,2 G,G, F,2 | D,2 C,4 C,2 | %5
w: Gau de te,~ qui|a~ vo bis,~|Gau de te,~ qui|a~ vo bis,~ Pu er~|est~ da tus,~|
 C,2 F,2 F,2 E,2 | F,2 B,,4 z2 | B,C D2 CB, F,2- | F,F, B,,4 z2 | B,C D2 CB, F,2- | F,F, G,4 z2 | %11
w: Quem~ De um~ no|mi no.~|Be ne di ci te~ Do|* mi no,~|Be ne di ci te~ Do|* mi no:~|
 C,2 C,2 C,2 D,2- | D,2 E,4 z2 | D,2 G,2 C,2 D,2- | D,2 G,,6- | G,,2 z2 z4 |] %16
w: Chris tus~ est~ na|* tus,~|Chris tus~ est~ na|* tus.~||

